X: 26200
T: McSherry's
R: waltz
M: 3/4
K: Gmajor
B2- B2 AG|cE EE GA|B2- Bd B/A/G|F2- FD GA|
B2- BB AG|cE EG FE|D2- DE F/E/D|D2- DE ED||
G2- GA AG|A2- AB cA|B/c/d g2 gf|gd B2- BA|
G2- GA B/A/G|A2- AB cA|B/c/d ed ^ce|d2- dd ef|
g2 d2- dB|e2- e2 c/B/A|d2 B2 BG|A2- AD GA|
B2 B2 AG|cE EG FE|D2- DE F/E/D|D2- DE ED||

